X: 134
M: 6/8
L: 1/8
K: A
E |\
|:\
cee efg | fdd d3  | dff fga | gee e3 |\
cAA ABc | dBB Bcd | cec dBG | A3 A,3 :|

